Sources/FrostedUI/Resources/Icons.xcassets/pictureInPicture12.imageset/picture-in-picture-12.svg

<svg width="12" height="12" viewBox="0 0 12 12" fill="none" xmlns="http://www.w3.org/2000/svg" data-fui-icon="true">
  <g clip-path="url(#clip0_4051_18)">
    <path
      d="M8.5918 0.941406C10.1769 1.02171 11.4375 2.33239 11.4375 3.9375V8.0625C11.4375 9.71935 10.0944 11.0625 8.4375 11.0625H3.5625C1.90565 11.0625 0.5625 9.71935 0.5625 8.0625V3.9375C0.5625 2.28065 1.90565 0.9375 3.5625 0.9375H8.4375L8.5918 0.941406ZM6.9375 6.75C6.83395 6.75 6.75 6.83395 6.75 6.9375V9.5625H8.4375C9.26593 9.5625 9.9375 8.89093 9.9375 8.0625V6.75H6.9375ZM3.5625 2.4375C2.73407 2.4375 2.0625 3.10907 2.0625 3.9375V8.0625C2.0625 8.89093 2.73407 9.5625 3.5625 9.5625H5.25V6.9375C5.25 6.00552 6.00552 5.25 6.9375 5.25H9.9375V3.9375C9.9375 3.16084 9.34722 2.52211 8.59082 2.44531L8.4375 2.4375H3.5625Z"
      fill="currentColor"
    />
  </g>
  <defs>
    <clipPath id="clip0_4051_18"><path fill="currentColor" d="M0 0H12V12H0z" /></clipPath>
  </defs>
</svg>

<svg xmlns="http://www.w3.org/2000/svg" width="12" height="12" fill="none" data-fui-icon="true" viewBox="0 0 12 12"><g clip-path="url(#a)"><path fill="currentColor" d="M8.592.941a3 3 0 0 1 2.845 2.997v4.124a3 3 0 0 1-3 3H3.564a3 3 0 0 1-3-3V3.939a3 3 0 0 1 3-3h4.874zM6.937 6.75a.19.19 0 0 0-.187.188v2.625h1.688a1.5 1.5 0 0 0 1.5-1.5V6.75zM3.563 2.438a1.5 1.5 0 0 0-1.5 1.5v4.124a1.5 1.5 0 0 0 1.5 1.5H5.25V6.938c0-.932.756-1.688 1.688-1.688h3V3.938A1.5 1.5 0 0 0 8.59 2.444l-.153-.007z"/></g><defs><clipPath id="a"><path fill="currentColor" d="M0 0h12v12H0z"/></clipPath></defs></svg>
